X: 38493
T: Steel City
R: slip jig
M: 9/8
K: Eminor
E2B A2G E2D|E2B B2A Bcd|E2B A2G EFG|A2D D2E FGA|E2B A2G E2B,|E2B B2A GAB|
d2d c2B A2G|FGF EFE D3:|:C2B, C2D E2F|G2F G2A Bcd|c2B c2B A2F|
G2G F2E DED|E2E D2E GEG|A2G A2B cBA|BcA B2A Bcd|e2B GBG E3:|

